X: 37438
T: Sliabh Lucan, The
R: polka
M: 2/4
K: Dmajor
dA d>f|eB e>g|fa fa|gf ed|
dA d>f|eB e>g|fa ge|ed d2:|
e2 e>f|gf e2|fa fa|gf ed|
e2 e>f|gf e2|fa ge|ed d2:|

